X: 38252
T: St Andrews Drive
R: reel
M: 4/4
K: Gmajor
DEGA|:B2dG ABG2|ABGA AGFG|E3G EDDE|G2G2 EDGA|
B3d A2G2|ABGA AGFD|E3G EDEG|1 A4 ADGA:|2 A3A- AGFG||
|:E3G EDEG|A3D ADdc|B3d A2G2|ABGA AGFD|
E3G EDEG|A3D ADdc|BdAB AGAB|1 c2B2 AGFG:|2 c3B ADG2||

